Sources/FrostedUI/Resources/Icons.xcassets/dna32.imageset/dna-32.svg

<svg width="32" height="32" viewBox="0 0 32 32" fill="none" xmlns="http://www.w3.org/2000/svg" data-fui-icon="true">
  <path
    fill-rule="evenodd"
    clip-rule="evenodd"
    d="M7 30.25C7 30.6642 6.66421 31 6.25 31C5.83579 31 5.5 30.6642 5.5 30.25C5.5 23.0504 10.8846 18.909 14.7535 16C10.8846 13.091 5.50001 8.9496 5.50001 1.75C5.50001 1.33579 5.83579 1 6.25001 1C6.66422 1 7.00001 1.33579 7.00001 1.75C7.00001 2.72721 7.11079 3.64155 7.31249 4.5L24.6875 4.5C24.8892 3.64155 25 2.72721 25 1.75C25 1.33579 25.3358 1 25.75 1C26.1642 1 26.5 1.33579 26.5 1.75C26.5 9.0452 20.9714 13.2004 17.0932 16.1152C16.8788 16.2764 16.6694 16.4338 16.4662 16.5877C16.4573 16.5948 16.4483 16.6016 16.4391 16.6082C16.2629 16.7418 16.084 16.8767 15.9032 17.0131L15.8995 17.0159L15.8985 17.0166C14.1757 18.3158 12.2691 19.7537 10.6642 21.5H21.3368C20.7055 20.812 20.0267 20.171 19.3292 19.5669C19.0161 19.2958 18.9821 18.8221 19.2533 18.509C19.5244 18.1959 19.9981 18.1619 20.3112 18.4331C23.4466 21.1485 26.5 24.8212 26.5 30.25C26.5 30.6642 26.1642 31 25.75 31C25.3358 31 25 30.6642 25 30.25C25 29.2736 24.8891 28.3592 24.6869 27.5H7.31249C7.11079 28.3584 7 29.2728 7 30.25ZM7.77469 26C8.1939 24.9081 8.76257 23.9141 9.42887 23H22.5704C23.2371 23.9156 23.8053 24.9097 24.2242 26H7.77469ZM24.2253 6L7.7747 6C8.19391 7.0919 8.76257 8.08586 9.42887 9L22.5711 9C23.2374 8.08586 23.8061 7.0919 24.2253 6ZM21.3358 10.5L10.6642 10.5C12.2692 12.2463 14.1757 13.6841 15.8985 14.9834L16 15.0599L16.1011 14.9837C17.8239 13.6845 19.7309 12.2463 21.3358 10.5Z"
    fill="currentColor"
  />
</svg>

<svg xmlns="http://www.w3.org/2000/svg" width="32" height="32" fill="none" data-fui-icon="true" viewBox="0 0 32 32"><path fill="currentColor" fill-rule="evenodd" d="M7 30.25a.75.75 0 0 1-1.5 0c0-7.2 5.385-11.341 9.254-14.25C10.884 13.091 5.5 8.95 5.5 1.75a.75.75 0 1 1 1.5 0c0 .977.11 1.892.312 2.75h17.376c.201-.858.312-1.773.312-2.75a.75.75 0 0 1 1.5 0c0 7.295-5.529 11.45-9.407 14.365l-.627.473-.027.02-.536.405-.004.003c-1.723 1.3-3.63 2.738-5.235 4.484h10.673a24 24 0 0 0-2.008-1.933.75.75 0 1 1 .982-1.134c3.136 2.715 6.189 6.388 6.189 11.817a.75.75 0 0 1-1.5 0c0-.976-.11-1.89-.313-2.75H7.312A12 12 0 0 0 7 30.25M7.775 26a13 13 0 0 1 1.654-3H22.57c.667.916 1.235 1.91 1.654 3zm16.45-20H7.775a13 13 0 0 0 1.654 3H22.57a13 13 0 0 0 1.654-3m-2.89 4.5h-10.67c1.604 1.746 3.51 3.184 5.234 4.483l.101.077.101-.076c1.723-1.3 3.63-2.738 5.235-4.484" clip-rule="evenodd"/></svg>
